X:2904
T:Chatagee Reel
R:reel
M:4/4
L:1/8
K:G
g>a|b2bg a2af|gbge d2g2|fdAB cBce|dBGA B2ga|
b2bg a2af|gbge d2g2|fdAB cdef|gagf g2:|
|:z2|G2GB d2(3gag |efge d2g2|fdAB cBce|dBGA B2BA|
G2GB d2(3gag |efge d2g2|fdAB cdef|gagf g2:|


